vendor/shopware/storefront/Resources/app/storefront/dist/assets/icon/default/checkmark-circle.svg

<svg xmlns="http://www.w3.org/2000/svg" width="24" height="24" viewBox="0 0 24 24">
  <path fill="#758CA3" fill-rule="evenodd" d="M24,12 C24,18.627417 18.627417,24 12,24 C5.372583,24 -7.65539184e-17,18.627417 -8.8817842e-16,12 C5.40562444e-15,5.372583 5.372583,1.21743707e-15 12,0 C18.627417,5.58919772e-16 24,5.372583 24,12 Z M12,2 C6.4771525,2 2,6.4771525 2,12 C2,17.5228475 6.4771525,22 12,22 C17.5228475,22 22,17.5228475 22,12 C22,6.4771525 17.5228475,2 12,2 Z M7.70710678,12.2928932 L10,14.5857864 L16.2928932,8.29289322 C16.6834175,7.90236893 17.3165825,7.90236893 17.7071068,8.29289322 C18.0976311,8.68341751 18.0976311,9.31658249 17.7071068,9.70710678 L10.7071068,16.7071068 C10.3165825,17.0976311 9.68341751,17.0976311 9.29289322,16.7071068 L6.29289322,13.7071068 C5.90236893,13.3165825 5.90236893,12.6834175 6.29289322,12.2928932 C6.68341751,11.9023689 7.31658249,11.9023689 7.70710678,12.2928932 Z"/>
</svg>

<svg xmlns="http://www.w3.org/2000/svg" width="24" height="24" viewBox="0 0 24 24"><path fill="#758CA3" fill-rule="evenodd" d="M24 12c0 6.6274-5.3726 12-12 12S0 18.6274 0 12 5.3726 0 12 0s12 5.3726 12 12zM12 2C6.4772 2 2 6.4772 2 12s4.4772 10 10 10 10-4.4772 10-10S17.5228 2 12 2zM7.7071 12.2929 10 14.5858l6.2929-6.293c.3905-.3904 1.0237-.3904 1.4142 0 .3905.3906.3905 1.0238 0 1.4143l-7 7c-.3905.3905-1.0237.3905-1.4142 0l-3-3c-.3905-.3905-.3905-1.0237 0-1.4142.3905-.3905 1.0237-.3905 1.4142 0z"/></svg>
